src/assets/img/amazon.svg

<svg width="80" height="48" viewBox="0 0 80 48" fill="none" xmlns="http://www.w3.org/2000/svg">
<g clip-path="url(#clip0_3315_1342)">
<path d="M22.4786 17.3555C22.4786 18.3226 22.5827 19.1067 22.7648 19.6817C22.9729 20.2568 23.2331 20.8841 23.5973 21.5636C23.7273 21.7727 23.7794 21.9818 23.7794 22.1648C23.7794 22.4262 23.6233 22.6876 23.2851 22.9489L21.6461 24.0467C21.412 24.2035 21.1779 24.282 20.9697 24.282C20.7096 24.282 20.4494 24.1513 20.1893 23.916C19.8251 23.524 19.5129 23.1058 19.2527 22.6876C18.9926 22.2432 18.7324 21.7466 18.4463 21.1454C16.4171 23.5501 13.8676 24.7524 10.7978 24.7524C8.61255 24.7524 6.86954 24.1251 5.5948 22.8705C4.32006 21.6159 3.66968 19.9431 3.66968 17.8521C3.66968 15.6304 4.45013 13.8269 6.03705 12.4677C7.62398 11.1086 9.7312 10.429 12.4108 10.429C13.2953 10.429 14.2058 10.5074 15.1684 10.6381C16.1309 10.7688 17.1195 10.9779 18.1601 11.2131V9.30508C18.1601 7.31862 17.7439 5.93333 16.9374 5.12306C16.1049 4.31279 14.7001 3.92073 12.6969 3.92073C11.7864 3.92073 10.8499 4.02528 9.88729 4.26052C8.92473 4.49576 7.98819 4.78327 7.07766 5.1492C6.66142 5.33216 6.34924 5.43671 6.16713 5.48899C5.98502 5.54126 5.85495 5.5674 5.75089 5.5674C5.38668 5.5674 5.20457 5.30603 5.20457 4.75713V3.47639C5.20457 3.05819 5.2566 2.74454 5.38668 2.56157C5.51675 2.37861 5.75089 2.19565 6.1151 2.01268C7.02563 1.5422 8.11826 1.15014 9.393 0.836488C10.6677 0.496699 12.0205 0.339873 13.4514 0.339873C16.5472 0.339873 18.8105 1.04559 20.2673 2.45702C21.6982 3.86845 22.4266 6.01174 22.4266 8.88688V17.3555H22.4786ZM11.9165 21.3284C12.775 21.3284 13.6595 21.1716 14.596 20.8579C15.5326 20.5443 16.3651 19.9692 17.0675 19.1851C17.4837 18.6885 17.7959 18.1396 17.952 17.5123C18.1081 16.885 18.2121 16.127 18.2121 15.2383V14.1405C17.4577 13.9576 16.6512 13.8008 15.8187 13.6962C14.9863 13.5917 14.1798 13.5394 13.3733 13.5394C11.6303 13.5394 10.3556 13.8792 9.49707 14.5849C8.63857 15.2906 8.22232 16.2838 8.22232 17.5907C8.22232 18.8192 8.53451 19.734 9.18488 20.3613C9.80925 21.0147 10.7198 21.3284 11.9165 21.3284ZM32.8066 24.1513C32.3383 24.1513 32.0262 24.0729 31.818 23.8899C31.6099 23.7331 31.4278 23.3671 31.2717 22.8705L25.1582 2.66612C25.0021 2.14337 24.924 1.80358 24.924 1.62062C24.924 1.20242 25.1322 0.967176 25.5484 0.967176H28.0979C28.5922 0.967176 28.9304 1.04559 29.1125 1.22855C29.3206 1.38538 29.4767 1.75131 29.6328 2.24792L34.0033 19.551L38.0617 2.24792C38.1917 1.72517 38.3478 1.38538 38.556 1.22855C38.7641 1.07173 39.1283 0.967176 39.5966 0.967176H41.6778C42.1721 0.967176 42.5103 1.04559 42.7184 1.22855C42.9265 1.38538 43.1086 1.75131 43.2127 2.24792L47.3231 19.7601L51.8237 2.24792C51.9798 1.72517 52.1619 1.38538 52.344 1.22855C52.5521 1.07173 52.8903 0.967176 53.3586 0.967176H55.778C56.1942 0.967176 56.4283 1.17628 56.4283 1.62062C56.4283 1.75131 56.4023 1.88199 56.3763 2.03882C56.3503 2.19565 56.2983 2.40475 56.1942 2.69226L49.9246 22.8967C49.7685 23.4194 49.5864 23.7592 49.3783 23.916C49.1701 24.0729 48.8319 24.1774 48.3897 24.1774H46.1524C45.6581 24.1774 45.3199 24.099 45.1118 23.916C44.9036 23.7331 44.7215 23.3933 44.6175 22.8705L40.5851 6.01174L36.5788 22.8444C36.4487 23.3671 36.2926 23.7069 36.0845 23.8899C35.8764 24.0729 35.5122 24.1513 35.0439 24.1513H32.8066ZM66.2361 24.857C64.8833 24.857 63.5305 24.7002 62.2297 24.3865C60.929 24.0729 59.9144 23.7331 59.238 23.341C58.8217 23.1058 58.5356 22.8444 58.4315 22.6091C58.3275 22.3739 58.2754 22.1125 58.2754 21.8773V20.5443C58.2754 19.9954 58.4835 19.734 58.8738 19.734C59.0299 19.734 59.186 19.7601 59.342 19.8124C59.4981 19.8647 59.7323 19.9692 59.9924 20.0738C60.8769 20.4659 61.8395 20.7795 62.8541 20.9886C63.8947 21.1977 64.9093 21.3023 65.9499 21.3023C67.5888 21.3023 68.8636 21.0147 69.7481 20.4397C70.6326 19.8647 71.1009 19.0283 71.1009 17.9566C71.1009 17.2248 70.8667 16.6236 70.3985 16.127C69.9302 15.6304 69.0457 15.1861 67.7709 14.7679L63.9987 13.5917C62.0996 12.9905 60.6948 12.1018 59.8363 10.9256C58.9778 9.77556 58.5356 8.49482 58.5356 7.13566C58.5356 6.03788 58.7697 5.07079 59.238 4.23438C59.7063 3.39798 60.3306 2.66612 61.1111 2.09109C61.8915 1.48993 62.776 1.04559 63.8166 0.731938C64.8573 0.418286 65.9499 0.287598 67.0945 0.287598C67.6669 0.287598 68.2652 0.313735 68.8376 0.392148C69.4359 0.470561 69.9822 0.575112 70.5285 0.679662C71.0489 0.81035 71.5431 0.941039 72.0114 1.09786C72.4797 1.25469 72.8439 1.41152 73.104 1.56834C73.4683 1.77744 73.7284 1.98654 73.8845 2.22178C74.0406 2.43088 74.1186 2.7184 74.1186 3.08433V4.31279C74.1186 4.86168 73.9105 5.1492 73.5203 5.1492C73.3122 5.1492 72.974 5.04465 72.5317 4.83555C71.0489 4.15597 69.3839 3.81618 67.5368 3.81618C66.0539 3.81618 64.8833 4.05142 64.0768 4.54803C63.2703 5.04465 62.8541 5.80264 62.8541 6.87428C62.8541 7.60614 63.1142 8.23344 63.6345 8.73006C64.1548 9.22667 65.1174 9.72329 66.4962 10.1676L70.1903 11.3438C72.0634 11.945 73.4162 12.7814 74.2227 13.853C75.0292 14.9247 75.4194 16.1531 75.4194 17.5123C75.4194 18.6362 75.1853 19.6556 74.743 20.5443C74.2747 21.433 73.6504 22.2171 72.8439 22.8444C72.0374 23.4978 71.0749 23.9683 69.9562 24.3081C68.7855 24.674 67.5628 24.857 66.2361 24.857Z" fill="#374151"/>
<path fill-rule="evenodd" clip-rule="evenodd" d="M71.1525 37.56C62.5935 43.9114 50.1583 47.2832 39.4661 47.2832C24.4814 47.2832 10.9795 41.7159 0.781584 32.4631C-0.0248844 31.7313 0.703539 30.7381 1.6661 31.3131C12.6965 37.743 26.3024 41.6375 40.3766 41.6375C49.8721 41.6375 60.3042 39.651 69.9038 35.5735C71.3346 34.9201 72.5573 36.5145 71.1525 37.56Z" fill="#374151"/>
<path fill-rule="evenodd" clip-rule="evenodd" d="M74.7159 33.4825C73.6232 32.071 67.4836 32.8029 64.7 33.1427C63.8675 33.2472 63.7375 32.5154 64.4919 31.9665C69.3827 28.5163 77.4214 29.5096 78.358 30.6596C79.2945 31.8358 78.0978 39.9123 73.5192 43.7807C72.8168 44.3819 72.1404 44.0682 72.4525 43.2841C73.4931 40.6965 75.8085 34.8678 74.7159 33.4825Z" fill="#374151"/>
</g>
<defs>
<clipPath id="clip0_3315_1342">
<rect width="79.2722" height="47.459" fill="white"/>
</clipPath>
</defs>
</svg>

<svg xmlns="http://www.w3.org/2000/svg" width="80" height="48" fill="none"><g fill="#374151" clip-path="url(#a)"><path d="M22.479 17.356c0 .967.104 1.75.286 2.326.208.575.468 1.202.832 1.882.13.209.182.418.182.6 0 .262-.156.524-.494.785l-1.639 1.098c-.234.156-.468.235-.676.235-.26 0-.52-.13-.78-.366a8 8 0 0 1-.937-1.228 20 20 0 0 1-.807-1.543q-3.043 3.607-7.648 3.607c-2.185 0-3.928-.627-5.203-1.881S3.67 19.943 3.67 17.852c0-2.222.78-4.025 2.367-5.384 1.587-1.36 3.694-2.039 6.374-2.039.884 0 1.795.078 2.757.21.963.13 1.951.339 2.992.574V9.305c0-1.986-.416-3.372-1.223-4.182-.832-.81-2.237-1.202-4.24-1.202-.91 0-1.847.104-2.81.34-.962.235-1.899.522-2.81.888a7.4 7.4 0 0 1-.91.34 1.6 1.6 0 0 1-.416.078c-.364 0-.546-.261-.546-.81v-1.28c0-.419.052-.732.182-.915s.364-.366.728-.55Q7.48 1.308 9.393.837C10.668.496 12.02.34 13.451.34c3.096 0 5.36.706 6.816 2.117 1.431 1.411 2.16 3.555 2.16 6.43v8.468zm-10.562 3.972c.858 0 1.742-.156 2.679-.47s1.77-.889 2.471-1.673c.417-.496.729-1.045.885-1.673.156-.627.26-1.385.26-2.274V14.14c-.754-.182-1.56-.34-2.393-.444a20 20 0 0 0-2.446-.157c-1.743 0-3.017.34-3.876 1.046-.858.706-1.275 1.699-1.275 3.006 0 1.228.313 2.143.963 2.77.624.654 1.535.967 2.731.967m20.89 2.823c-.469 0-.78-.078-.989-.261-.208-.157-.39-.523-.546-1.02L25.158 2.666c-.156-.523-.234-.862-.234-1.045 0-.419.208-.654.624-.654h2.55c.494 0 .832.079 1.015.262.208.156.364.522.52 1.019l4.37 17.303 4.059-17.303c.13-.523.286-.863.494-1.02.208-.156.572-.26 1.04-.26h2.082c.494 0 .832.078 1.04.26.208.157.39.523.495 1.02l4.11 17.512 4.5-17.512c.157-.523.339-.863.521-1.02.208-.156.546-.26 1.015-.26h2.419c.416 0 .65.208.65.653 0 .13-.026.261-.052.418a3.7 3.7 0 0 1-.182.653l-6.27 20.205q-.233.783-.546 1.019c-.208.157-.546.261-.988.261h-2.238c-.494 0-.832-.078-1.04-.261s-.39-.523-.495-1.046L40.585 6.012 36.58 22.844c-.13.523-.286.863-.495 1.046-.208.183-.572.261-1.04.261zm33.43.706c-1.354 0-2.706-.157-4.007-.47-1.301-.314-2.316-.654-2.992-1.046-.416-.235-.702-.497-.806-.732a1.9 1.9 0 0 1-.157-.732v-1.333c0-.549.209-.81.599-.81q.234 0 .468.078c.156.053.39.157.65.262a14 14 0 0 0 2.862.915c1.04.209 2.055.313 3.096.313 1.639 0 2.914-.287 3.798-.862.885-.575 1.353-1.412 1.353-2.483 0-.732-.234-1.333-.703-1.83s-1.352-.94-2.627-1.36l-3.772-1.175c-1.9-.601-3.304-1.49-4.163-2.666-.858-1.15-1.3-2.431-1.3-3.79q0-1.647.702-2.902a6.7 6.7 0 0 1 1.873-2.143c.78-.601 1.665-1.045 2.706-1.36 1.04-.313 2.133-.443 3.277-.443a13 13 0 0 1 1.744.104c.598.079 1.144.183 1.69.288.52.13 1.015.261 1.483.418q.703.236 1.093.47c.364.21.624.419.78.654q.235.313.235.862v1.229c0 .549-.209.836-.599.836-.208 0-.546-.104-.988-.313q-2.225-1.02-4.995-1.02c-1.483 0-2.654.235-3.46.732-.807.497-1.223 1.255-1.223 2.326 0 .732.26 1.36.78 1.856.52.497 1.483.993 2.862 1.438l3.694 1.176c1.873.601 3.226 1.437 4.033 2.509.806 1.072 1.196 2.3 1.196 3.66 0 1.123-.234 2.143-.676 3.031a7 7 0 0 1-1.9 2.3c-.806.654-1.768 1.124-2.887 1.464-1.17.366-2.393.549-3.72.549"/><path fill-rule="evenodd" d="M71.153 37.56c-8.56 6.351-20.995 9.723-31.687 9.723-14.985 0-28.486-5.567-38.684-14.82-.807-.732-.078-1.725.884-1.15 11.03 6.43 24.636 10.325 38.71 10.325 9.496 0 19.928-1.987 29.528-6.064 1.43-.654 2.653.94 1.249 1.986" clip-rule="evenodd"/><path fill-rule="evenodd" d="M74.716 33.483c-1.093-1.412-7.232-.68-10.016-.34-.833.104-.963-.628-.208-1.177 4.89-3.45 12.93-2.456 13.866-1.306.936 1.176-.26 9.252-4.839 13.12-.702.602-1.379.288-1.067-.496 1.041-2.587 3.356-8.416 2.264-9.801" clip-rule="evenodd"/></g><defs><clipPath id="a"><path fill="#fff" d="M0 0h79.272v47.459H0z"/></clipPath></defs></svg>
